packages/kaspersky-hexa-ui-icons/src/iconsSVGs/16/Home2.svg

<svg width="16" height="16" viewBox="0 0 16 16" fill="none" xmlns="http://www.w3.org/2000/svg">
<path fill-rule="evenodd" clip-rule="evenodd" d="M7.58137 1.71963C7.80559 1.56042 8.10574 1.55953 8.33089 1.71742L15.0582 6.43491C15.3521 6.64102 15.4233 7.04638 15.2172 7.3403C15.0111 7.63422 14.6057 7.7054 14.3118 7.49929L13.716 7.08146V12.3502C13.716 13.4824 12.7981 14.4002 11.666 14.4002H9.59648L9.59086 14.4002H6.40832L6.40269 14.4002H4.33313C3.20095 14.4002 2.28313 13.4824 2.28313 12.3502V7.07622L1.69044 7.49708C1.39774 7.70492 0.991977 7.63613 0.784136 7.34343C0.576296 7.05073 0.645087 6.64497 0.937786 6.43712L7.58137 1.71963ZM9.54086 13.1002H6.45832V10.0735H9.54086V13.1002ZM10.8409 13.1002V10.0235C10.8409 9.33316 10.2812 8.77351 9.59086 8.77351H6.40832C5.71796 8.77351 5.15832 9.33316 5.15832 10.0235V13.1002H4.33313C3.91892 13.1002 3.58313 12.7644 3.58313 12.3502V6.15311L7.96004 3.04515L12.416 6.16984V12.3502C12.416 12.7644 12.0802 13.1002 11.666 13.1002H10.8409Z" fill="black"/>
</svg>

<svg xmlns="http://www.w3.org/2000/svg" width="16" height="16" fill="none" viewBox="0 0 16 16"><path fill="#000" fill-rule="evenodd" d="M7.5814 1.7196a.65.65 0 0 1 .7495-.0022l6.7273 4.7175a.65.65 0 0 1-.7464 1.0644l-.5958-.4178v5.2687c0 1.1322-.9179 2.05-2.05 2.05H4.3331c-1.1321 0-2.05-.9178-2.05-2.05v-5.274l-.5927.4209a.65.65 0 1 1-.7526-1.06zm1.9595 11.3806H6.4583v-3.0267H9.541zm1.3 0v-3.0767c0-.6903-.5597-1.25-1.25-1.25H6.4083c-.6903 0-1.25.5597-1.25 1.25v3.0767h-.8252a.75.75 0 0 1-.75-.75v-6.197l4.377-3.108 4.4559 3.1246v6.1804a.75.75 0 0 1-.75.75z"/></svg>
